src/assets/images/pen.svg

<svg width="28" height="28" viewBox="0 0 28 28" fill="none" xmlns="http://www.w3.org/2000/svg">
<path opacity="0.5" d="M24.3228 10.1652C26.1145 8.3735 26.1145 5.46865 24.3228 3.67699C22.5312 1.88534 19.6263 1.88534 17.8347 3.67699L16.7998 4.71187C16.814 4.75466 16.8287 4.79805 16.8439 4.842C17.2232 5.93533 17.9389 7.36859 19.2853 8.71494C20.6316 10.0613 22.0649 10.777 23.1582 11.1563C23.202 11.1715 23.2452 11.1861 23.2878 11.2002L24.3228 10.1652Z" fill="white"/>
<path d="M16.8449 4.66748L16.8004 4.71204C16.8145 4.75483 16.8292 4.79822 16.8445 4.84217C17.2238 5.9355 17.9395 7.36876 19.2859 8.71511C20.6322 10.0615 22.0655 10.7772 23.1588 11.1565C23.2022 11.1715 23.245 11.186 23.2872 11.2L13.3 21.1872C12.6267 21.8605 12.29 22.1973 11.9188 22.4868C11.4809 22.8284 11.0071 23.1212 10.5057 23.3601C10.0807 23.5627 9.62902 23.7132 8.72563 24.0144L3.96173 25.6023C3.51716 25.7505 3.02702 25.6348 2.69565 25.3034C2.36429 24.9721 2.24858 24.4819 2.39678 24.0374L3.98474 19.2735C4.28587 18.3701 4.43644 17.9184 4.63898 17.4934C4.87791 16.992 5.17074 16.5182 5.5123 16.0803C5.80183 15.7091 6.13851 15.3724 6.81178 14.6992L16.8449 4.66748Z" fill="white"/>
</svg>

<svg xmlns="http://www.w3.org/2000/svg" width="28" height="28" fill="none"><path fill="#fff" d="M24.323 10.165a4.588 4.588 0 1 0-6.488-6.488L16.8 4.712l.044.13a10.2 10.2 0 0 0 2.441 3.873 10.2 10.2 0 0 0 4.003 2.485z" opacity=".5"/><path fill="#fff" d="m16.845 4.667-.045.045.044.13a10.2 10.2 0 0 0 2.442 3.873 10.2 10.2 0 0 0 4.001 2.485L13.3 21.187c-.673.673-1.01 1.01-1.381 1.3a7.6 7.6 0 0 1-1.413.873c-.425.203-.877.353-1.78.654l-4.764 1.588a1.237 1.237 0 0 1-1.565-1.565l1.588-4.764c.3-.903.451-1.355.654-1.78.239-.501.532-.975.873-1.413.29-.37.627-.708 1.3-1.38z"/></svg>
